X:1
T:Little Pine Siskin - D
L:1/8
M:4/4
R:Reel
K:D
A,B,|: "D"D2DE FEDF|"A"E2EEE2DE| "D"FABc d2c2|"G"B2BBB2BB|
BABc d2dd|"D"dBAF D2A,B,|1 D2EFE2D2| "G"B,2B,B,B,2A,B,:|2 D2EF"A"EDC2|"D"D2DD DEFA|
|| "G"B4 d4|BAF2 "A"A4| "G"B2d2BAF2| "A"A6 A2| "G"B4d4 |BAF2 "Bm"B2>A2|"G"B2d2 BAF2|"A"A2AB AGFD|
|| "Em"E4 E2>F2| EDB,2 "A"A,2>D2| "Em"E2EF ED B,2| "A"A,4 A,B,D2| "Em"E4 E2EE| EDEF "G"G2GE| "D"F2D2 "A"EDCE| "D" D6 :|

